X:1
T:James Gibb editions
T:Alma Redemptoris mater - Prez
T:#
%%score [ 1 2 3 4 ]
L:1/8
Q:1/4=200
M:none
K:F
V:1 treble-8 nm="Tenor I" snm="T I"
V:2 treble-8 nm="Tenor II" snm="T II"
V:3 treble-8 nm="Tenor III" snm="T III"
V:4 bass nm="Bass" snm="B"
V:1
"^Alma Redemptoris mater""^Josquin des Prez\n(c.1455-1521)" (F8 A8) | (B8 c8) | z4 (F6 E2 D2 C2 | %3
w: Al\- *|ma, *|al\- * * *|
 D8) C4 (c4- | c2 B2 A2 G2 F4 f4- | f4 e2 d2 e8) | A16 | z8 (A6 B2 | c4) C4 (c2 B2 A2 G2 | %9
w: * ma, al\-|||ma|Re\- *|* dem- pto\- * * *|
 F4 c4 A4 B4 | G4 A8 D2 E2 | F2 G2 A8 G4) | A8 z8 | z16 | (F6 G2 A2 B2 c4- | c4 B4) c8 | %16
w: |||ris||ma\- * * * *|* * ter,|
 (F6 G2 A2 B2 c4 | d4 f8 e4 | f6 e2 f4 g4 | c4 d4 e2 d2 c2 B2 | A4 c6 B2 A2 G2 | F4 f8 e4) | %22
w: ma\- * * * *||||||
 f8 z4 F4 | (G4 A8 F4 | G4 A4 D4 B4 | A2 G2 G8) F4 | G4 (A6 F2 f4- | f4 e4 d8 | c4 A4 d8) | c16 | %30
w: ter, quae|per\- * *||* * * vi-|a coe\- * *|||li|
 z4 (c4 d4 f4- | f4 e2 d2 e8 | c6 B2 A2 G2 A4) | F4 (f8 e4) | f4 (c6 B2 A4) | (G4 F8) E4 | %36
w: por\- * *|||ta ma\- *|nes, et * *|stel\- * la|
 (F6 G2 A4 B4 | c12 B2 A2) | A4 B12 | G4 (A8 D4) | D8 z8 | z16 | z8 d8 | (c8 f6 e2 | d2 c2 d8 c4) | %45
w: ma\- * * *||ris, stel-|la ma\- *|ris,||suc-|cur\- * *||
 d4 c4 (f8- | f4 e2 d2 e8) | f8 z8 | f12 f4 | f4 c4 g8 | (f6 d2 f4) (e4- | e4 A4 B4 d4- | %52
w: re ca- den\-||ti,|sur- ge-|re qui cu-|rat * * po\-||
 d4 c2 B2 c4) A4 | E16- | E16 ||[M:4/2][K:treble-8] z16 | z16 | z4 (F6 G2 A2 B2 | c4) A4 B6 A2 | %59
w: * * * * pu-|lo.||||Tu * * *|* quae ge- nu-|
 (F12 G4) | A8 z4 A4 | (B4 c4 G8 | A6 G2 A4 B4- | B2 A2 G8 F4) | (G8 A8) | z16 | z8 z4 F4 | %67
w: i\- *|sti, na-|tu\- * *|||ra *||mi-|
 (G4 A4 B6 A2 | F2 G2 A2 B2 c2 d2 e2 f2 | g2 c2 f8 e4) | f8 z8 | z16 | z4 c8 (d4- | d4 e8) (f4- | %74
w: ran\- * * *|||te,||tu- um|* * san\-|
 f2 d2 e4 f8) | e8 z4 (c4 | d4) c4 (d2 c2 f4- | f4 e4 f6 e2 | d2 c2 c8 =B4) | c16 | z16 | z16 | %82
w: |ctum Ge\-|* ni- to\- * *|||rem.|||
 (F2 G2 A2 B2 c4 d4- | d2 c2 c8 =B4) | (c8 F8) | z8 z4 (G4 | A4 F4 c8- | c4 B2 A2 B4 c4) | %88
w: Vir\- * * * * *||go *|pri\-|||
 A4 (B6 A2 F4) | G8 B8 | A8 F8 | A4 G4 (B6 AB | A2 G2 G8 F4 | G8 A8 | F4 f4 d4) e4 | f16 | %96
w: us ac * *|po- ste-|ri- us,|ac po ste\- * *|||* * * ri-|us,|
 z4 (f4 d4) e4 | (f6 e2 d4) c4- | c4 (f6 d2 e4) | (f6 e2 c4 d4- | d4 c4 d4 e4 | c8 d8) | %102
w: Ga\- * bri-|e\- * * lis|* ab * *|o\- * * *|||
 e8 z4 (c4 | d4) e4 (f8 | e8 c4 (f4- | f2 e2 d2 c2 B4 A4 | B8) A8 | z4 d4 e4) c4 | f8 e8 | %109
w: re su\-|* mens il\-|* lud a\-||* ve,|pec\- * ca-|to- rum|
 z4 (d4 e4) c4 | (f8 e6 d2 | e4 f2 e2 d2 c2 c4- | c4 f6 d2 e4) | (A6 F2 G4 A4- | A2 F2 f8 e4) | %115
w: mi\- * se-|re\- * *||* * * re.|A\- * * *||
 f16- | f16 | f16 |] %118
w: men.|||
V:2
 z16 | z16 | z16 | z16 | (F8 A8) | (B8 c8) | z8 z4 (c4 | d4 e4 f8 | e6 d2 e4 f4- | f4 e4 d8 | %10
w: ||||Al\- *|ma, *|al\-||||
 c6 B2 c4 d4 | A8 B8) | A16 | z16 | c8 c8 | F8 G8 | (A12 G4 | A4 B4 c8- | c4 F4 c6 B2 | A4 F4 G8) | %20
w: ||ma||Re- dem-|pto- ris|ma *||||
 F16 | z16 | c8 d8 | e8 f8 | z4 (e4 f4 d4- | d2 c2 c8 =B4) | c8 z8 | (F8 G8 | A4 c4 B8) | A8 (c8- | %30
w: ter,||quae per-|vi- a|coe\- * *||li|por\- *||ta ma\-|
 c8 F8- | F8 G8 | A6 G2 A2 B2 c4- | c4 A4 G8) | F16 | z16 | (f12 e2 d2 | e6 d2 e4) (f4- | %38
w: ||||nes,||et * *|* * * stel\-|
 f2 e2 d2 c2 d8) | (c6 B2 c4) (d4- | d2 c2 B2 A2 B8) | A8 F8 | (G12 A2 B2) | (A6 G2 A4) (B4- | %44
w: |la * * ma\-||ris, suc-|cur * *|re * * ca\-|
 B2 A2 G2 F2) G8 | F16 | z8 c8- | c4 c4 c4 c4 | d8 c8 | (A4 F4) G8 | A16 | z8 (D8 | F8) E8 | A16- | %54
w: * * * * den-|ti|sur\-|* ge- re qui|cu- rat|po\- * pu-|lo,|po\-|* pu-|lo.|
 A16 ||[M:4/2][K:treble-8] (f12 e2 d2 | e4 f4 d8 | c8) f8 | z8 f8- | f4 e4 (d8 | c4 f6 e2 d2 c2 | %61
w: |Tu * *||* quae|ge\-|* nu- i\-||
 d4 c8 =B4) | c8 z8 | z16 | z4 c4 (c6 A2 | B2 c2 A8 G4) | A16 | z16 | z4 (F2 G2 A2 B2 c4- | %69
w: |sti,||na- tu\- *||ra||mi\- * * * *|
 c4 A4) G8 | F16 | z16 | z8 F8 | (G8 A8) | A8 A8 | z4 (c6 B2 A2 G2 | F4) E4 (F8 | G8) F8 | z16 | %79
w: * * ran-|te,||tu-|um *|san- ctum|Ge\- * * *|* ni- to\-|* rem.||
 z8 (f8- | f4 e2 d2 e4 f4- | f2 e2 d2 c2 d8) | c8 z8 | z16 | z4 (c6 B2 A2 G2 | F4 A4 G8) | F16 | %87
w: Vir\-|||go||pri\- * * *||us|
 z4 c4 (d4 e4) | (f12 e2 d2 | e4 g6 f2 e4 | d4 c8) =B4 | c8 z8 | z16 | z4 c4 d4 (c4- | %94
w: ac po\- *|ste\- * *||* * ri-|us,||Ga- bri- e\-|
 c2 B2 c2 A2 B4 c4) | A4 F4 (B4 A4 | F4 A4 G8) | F16 | z16 | z8 (F8 | G8 A8- | A4 G4) A8 | %102
w: |lis ab o\- *||re||su\-||* * mens|
 z4 (c6 B2 A2 G2 | F4 G8) F4 | G8 A8 | z16 | z8 c8 | B8 c8 | F8 z4 G4- | G4 F4 (G4 A4- | %110
w: il\- * * *|* * lud|a- ve,||pec-|ca- to-|rum mi\-|* se- re\- *|
 A2 G2 A2 B2) c8 | z4 (A4 B4) c4 | (F8 G8) | F8 z8 | z8 (c8- | c4 A4 d8) | c16- | c16 |] %118
w: * * * * re,|mi\- * se-|re\- *|re.|A\-||men.||
V:3
 z16 | z16 | z16 | z16 | z16 | z16 | (F8 A8) | (B8 c8) | z8 z4 (c4 | d4 e4 f8 | e6 d2 e4 f4- | %11
w: ||||||Al\- *|ma, *|al\-|||
 f4 e4 d8 | c6 B2 c4 d4 | A8 B8) | A16 | z16 | c8 c8 | F8 G8 | (A12 G4 | A4 B4 c8 | c4 F4 c6 B2 | %21
w: |||ma||Re- dem-|pto- ris|ma\- *|||
 A4 F4 G8) | F16 | z16 | c8 d8 | e8 f8 | z4 (e4 f4 d4- | d2 c2 c8 =B4) | c8 z8 | (F8 G8 | %30
w: |ter,||quae per-|vi- a|coe\- * *||li|por\- *|
 A4 c4 B8) | A8 (c8- | c8 F8- | F8 G8 | A6 G2 A2 B2 c4- | c4 A4 G8) | F16 | z16 | (f12 e2 d2 | %39
w: |ta ma\-|||||nes,||et * *|
 e6 d2 e4) (f4- | f2 e2 d2 c2 d8) | (c6 B2 c4) (d4- | d2 c2 B2 A2 B8) | A8 F8 | (G12 A2 B2) | %45
w: * * * stel\-||la * * ma\-||ris, suc-|cur\- * *|
 (A6 G2 A4) (B4- | B2 A2 G2 F2) G8 | F16 | z8 c8- | c4 c4 c4 c4 | d8 c8 | (A4 F4) G8 | A16- | A16 | %54
w: re * * ca\-|* * * * den-|ti,|sur\-|* ge- re qui|cu- rat|po\- * pu-|lo.||
 A16 ||[M:4/2][K:treble-8] z16 | z16 | (f12 e2 d2 | e4 f4 d8 | c8) f8 | z8 f8- | f4 e4 (d8 | %62
w: |||Tu * *||* quae|ge\-|* nu- i\-|
 c4 f6 e2 d2 c2 | d4 c8 =B4) | c8 z8 | z16 | z4 c4 (c6 A2 | B2 c2 A8 G4) | A16 | z16 | %70
w: ||sti,||na- tu\- *||ra||
 z4 (F2 G2 A2 B2 c4- | c4 A4) G8 | F16 | z16 | z8 F8 | (G8 A8) | A8 A8 | z4 (c6 B2 A2 G2 | %78
w: mi\- * * * *|* * ran-|te,||tu-|um *|san- ctum|Ge\- * * *|
 F4) E4 (F8 | G8 F8 | z16 | z8 (f8- | f4 e2 d2 e4 f4- | f2 e2 d2 c2 d8) | c8 z8 | z16 | %86
w: * ni- to\-|* rem.||Vir\-|||go||
 z4 c6 B2 A2 G2 | F4 A4 G8) | F16 | z4 c4 (d4 e4) | (f12 e2 d2 | e4 g6 f2 e4 | d4 c8) =B4 | c8 z8 | %94
w: pri\- * * *||us|ac po\- *|ste\- * *||* * ri-|us,|
 z16 | z4 c4 d4 (c4- | c2 B2 c2 A2 B4 c4) | A4 F4 (B4 A4 | F4 A4 G8) | F16 | z16 | z8 (F8 | %102
w: |Ga- bri- e\-||lis ab o\- *||re||su\-|
 G8 A8- | A4 G4) A8 | z4 (c6 B2 A2 G2 | F4 G8) F4 | G8 A8 | z16 | z8 c8 | B8 c8 | F8 z4 G4- | %111
w: |* * mens|il\- * * *|* * lud|a- ve,||pec-|ca- to-|rum mi\-|
 G4 F4 (G4 A4- | A2 G2 A2 B2) c8 | z4 (A4 B4 c4 | F8 G8) | F16- | F16 | F16 |] %118
w: * se- re\- *|* * * * re.|A\- * *||men.|||
V:4
 z16 | z16 | (F,8 A,8) | (B,8 C8) | z4 (F,6 E,2 D,2 C,2 | D,8) C,4 (C4- | C2 B,2 A,2 G,2 F,4 A,4 | %7
w: ||Al\- *|ma, *|al\- * * *|* ma, al\-||
 G,8 F,8 | (C,4 C2 B,2 A,2 G,2 F,4- | F,2 E,2 C,4 D,4 B,,4) | C,8 z8 | z16 | F,6 G,2 A,4 D,2 E,2 | %13
w: * ma,|al\- * * * * *||ma,||al\- * * * *|
 F,2 G,2 A,8 G,4) | A,4 (F,6 E,2 C,4) | (D,8 C,8) | z4 F,8 E,4 | D,8 C,8 | (F,12 E,4 | %19
w: |ma, al\- * *|ma *|Re- dem-|pto- ris|ma\- *|
 F,4 D,4) C,8 | (C6 B,2 A,2 G,2 F,4- | F,4 D,4) C,8 | z4 (F,8 E,2 D,2 | C,8 D,8 | C,8) z4 (B,,4 | %25
w: * * ter,|ma\- * * * *|* * ter,|quae * *||* per\-|
 C,8 D,8) | C,8 F,8 | z16 | z16 | z8 C,8 | A,,8 D,8- | D,8 C,8 | (F,16 | A,8 B,8 | %34
w: |vi- a|||coe-|li por\-|* ta|ma\-||
 C6 B,2 A,2 G,2 F,4 | E,4 F,4 C,8) | D,16 | (C,6 B,,2 C,4) D,4- | D,4 B,,4 B,,8 | C,8 z8 | z16 | %41
w: ||nes,|et * * stel\-|* la ma-|ris,||
 z16 | z16 | z8 D,8 | B,,8 _E,8 | D,4 (F,6 _E,2 D,2 C,2 | B,,4 D,4) C,8 | z8 F,8- | F,4 F,4 F,8 | %49
w: ||suc-|cur- re|ca- den\- * * *|* * ti,|sur\-|* ge- re|
 F,8 E,8 | (D,6 C,2 A,,4) (C,4- | C,4 D,4) B,,8 | A,,16- | A,,16 | A,,16 || %55
w: qui cu-|rat * * po\-|* * pu-|lo.|||
[M:4/2] z4 (F,6 G,2 A,2 B,2 | C4) A,4 B,6 A,2 | (F,6 E,2 D,8 | C,4 D,4) B,,8 | z8 B,,8 | F,16 | %61
w: Tu * * *|* quae ge- nu-|i\- * *|* * sti,|i-|sti,|
 z16 | (F,6 E,2 F,4) (G,4- | G,4 E,4 D,8) | C,8 z4 F,4 | (G,4 A,4 B,6 A,2) | F,16 | z16 | z16 | %69
w: |na\- * * tu\-||ra mi-|ran\- * * *|te,|||
 z8 C,8 | (D,6 E,2 F,2 G,2 A,4- | A,2 G,2 F,8 E,4) | F,8 z4 B,,4- | B,,4 (C,8 D,4- | %74
w: mi-|ran\- * * * *||te, tu\-|* um *|
 D,4) (C,4 D,8 | C,8 F,6 E,2 | D,4 A,,4 D,8) | C,8 z4 (F,4- | F,2 E,2) C,4 D,8 | C,8 z4 (F,4- | %80
w: * san\- *|||ctum Ge\-|* * ni- to-|rem. Vir\-|
 F,2 G,2 A,2 B,2 C4 D4- | D2 C2 C8 =B,4) | C8 z8 | z8 z4 (G,4 | A,4 F,4 C6 B,2 | A,2 G,2 F,8 E,4) | %86
w: ||go|pri\-|||
 F,8 z8 | z8 z4 C,4 | D,8 (D,8 | C,8 G,8 | F,6) E,2 D,8 | z4 C,4 G,8 | (F,4 E,4 D,8 | C,8) F,8 | %94
w: us|ac|po- ste\-||* ri- us,|Ga- bri-|e\- * *|* lis|
 z4 F,4 (G,4 C,4 | F,8 B,,4) F,4 | z4 (F,4 G,4) C,4 | (D,8 B,,4) F,4 | z4 (F,4 G,4 C,4) | %99
w: ab o\- *|* * re,|Ga\- * bri-|e\- * lis|ab * *|
 (D,4 F,8 E,2 D,2 | E,8) D,4 (C,4 | F,4 E,4 D,8) | C,8 (F,8- | F,4 E,4) D,8 | C,8 F,8 | z16 | z16 | %107
w: o\- * * *|* re su\-||mens il\-|* * lud|a- ve,|||
 G,8 C,8 | D,8 C,8 | D,8 C,8 | (D,8 C,6 B,,2 | C,4 D,4 B,,4 F,4- | F,4 D,4) C,8 | z4 (F,4 D,4 C,4 | %114
w: pec- ca-|to- rum|mi- se-|re\- * *||* * re.|A\- * *|
 D,8 C,8) | F,16- | F,16 | F,16 |] %118
w: |men.|||

